X:1
T:Title
%%score ( 1 2 ) { 3 | 4 }
L:1/8
Q:1/4=88
M:6/8
K:F
V:1 treble nm="Grand Piano, Soprano"
V:2 treble 
V:3 bass nm="Choir Pad, Bass"
V:4 bass 
V:1
 [Fc]>[Fc][Fc] .[FA]2 [CF]/[CF]/ | [DG][DF][B,D] [A,C]2 [CF]/[CF]/ | [EG]>[EG][EG] [Ec]2 [EG] | %3
w: By~Peter~Philip~Bilhorn * * * * *|||
 [FA]6 | [Fc]>[Fc][Fc] .[FA]2 [CF]/[CF]/ | F[EG][_EA] [DB]2 [Fd] | [Fc]>[FA]F [EG]2 F | F6 | %8
w: |||||
 [DB]>[DB][DB] .[Fd]3 | [Fc]>[Fc][Fc] .[FA]3 | [EG]<[EG][EG] [F=B]2 [FG] | [Ec]6 | %12
w: ||||
 [Fc]>[Fc][Fc] .[FA]2 [CF]/[CF]/ | .G3 z3 | [DG]<.[DG][DG] [CF]2 [CE] | [CF]6- | [CF]3 z3 |] %17
w: |||||
V:2
 x6 | x6 | x6 | x6 | x6 | x6 | x6 | x6 | x6 | x6 | x6 | x6 | x6 | D-[DF][B,D] [A,C]2 [CF] | x6 | %15
 x6 | x6 |] %17
V:3
 A,>A,A, .C2 A,/A,/ | B,B,F, F,2 A,/A,/ | B,>B,B, G,2 C | C6 | A,>A,A, .C2 A,/A,/ | A,B,C B,2 B, | %6
 A,>CA, B,2 A, | A,6 | B,>B,B, .B,3 | A,>A,A,[K:treble] .C3 | C<CC D2[K:bass] =B, | C3 B,3 | %12
 A,>A,A, .C2 A,/A,/ | B,2 F, F,2 A, | B,<.B,B, A,2 B, | A,6- | A,3 z3 |] %17
V:4
 F,>F,F, .F,2 F,/F,/ | B,,B,,B,, F,,2 F,/F,/ | C,>C,C, C,2 C, | F,6 | F,>F,F, .F,2 F,/F,/ | %5
 F,F,F, B,,2 B,, | C,>C,C, C,2 F, | F,6 | B,,>B,,B,, .B,,3 | F,>F,F, .F,3 | G,<G,G, G,2 G, | C,6 | %12
 F,>F,F, .F,2 F,/F,/ | B,,2 B,, F,,2 F, | B,,<.B,,B,, C,2 C, | [F,,F,]6- | [F,,F,]3 z3 |] %17

